icons/svg/16x16/close/outline.svg

<svg xmlns="http://www.w3.org/2000/svg" width="16" height="16" viewBox="0 0 16 16">
  <path fill-rule="evenodd" d="M9.4139293,8.000125 L12.7067647,4.70720732 C13.0977451,4.31621709 13.0977451,3.68423289 12.7067647,3.29324267 C12.3157842,2.90225244 11.6838158,2.90225244 11.2928354,3.29324267 L8,6.58616035 L4.70716464,3.29324267 C4.31618419,2.90225244 3.68421579,2.90225244 3.29323534,3.29324267 C2.90225489,3.68423289 2.90225489,4.31621709 3.29323534,4.70720732 L6.5860707,8.000125 L3.29323534,11.2930427 C2.90225489,11.6840329 2.90225489,12.3160171 3.29323534,12.7070073 C3.48822559,12.9020024 3.74421279,13 4.00019999,13 C4.25618719,13 4.51217439,12.9020024 4.70716464,12.7070073 L8,9.41408965 L11.2928354,12.7070073 C11.4878256,12.9020024 11.7438128,13 11.9998,13 C12.2557872,13 12.5117744,12.9020024 12.7067647,12.7070073 C13.0977451,12.3160171 13.0977451,11.6840329 12.7067647,11.2930427 L9.4139293,8.000125 Z"/>
</svg>

<svg width="16" height="16" fill="none" xmlns="http://www.w3.org/2000/svg">
  <path fill-rule="evenodd" clip-rule="evenodd" d="M9.414 8l3.293-3.293C12.901 4.513 13 4.254 13 4a.985.985 0 00-.293-.707.996.996 0 00-1.414 0L8 6.586 4.707 3.293a.997.997 0 00-1.414 0 .997.997 0 000 1.414L6.586 8l-3.293 3.293a.997.997 0 000 1.414.997.997 0 001.414 0L8 9.414l3.293 3.293a.997.997 0 001.414 0 1.003 1.003 0 000-1.414L9.414 8z" fill="#000"/>
</svg>
